public/images/fide-fed/FID.svg

<?xml version="1.0" encoding="utf-8"?>
<svg viewBox="0 0 640 480" width="640px" height="480px" xmlns="http://www.w3.org/2000/svg">
  <rect width="640" height="480" fill="#334166"/>
  <path d="M 249.97 104.85 C 248.635 106.705 247.295 108.105 245.955 109.5 C 207.595 101.125 162.545 86.7 129.095 69.955 C 129.54 69.725 129.875 69.49 130.21 69.26 C 130.545 69.025 130.88 68.79 131.325 68.56 C 133.555 67.16 135.785 65.765 138.015 64.84 C 138.685 64.605 139.24 64.255 139.8 63.905 C 140.355 63.56 140.915 63.21 141.585 62.975 L 149.61 58.79 C 150.06 58.555 150.615 58.325 151.175 58.09 C 151.73 57.86 152.29 57.625 152.735 57.39 C 154.675 56.385 156.615 55.615 158.385 54.91 C 159.055 54.65 159.705 54.395 160.315 54.14 C 162.04 53.78 163.495 53.14 165.095 52.445 C 165.565 52.235 166.055 52.02 166.56 51.81 C 168.345 50.88 170.13 49.95 171.915 49.485 C 203.585 36.92 237.035 29.015 271.38 25.289 L 284.765 23.895 C 286.1 23.429 287.885 23.429 289.225 23.429 C 290.785 23.429 292.345 23.315 293.905 23.2 C 295.47 23.08 297.03 22.965 298.59 22.965 C 300.375 22.5 302.605 22.5 304.39 22.5 L 315.985 22.5 L 318.66 22.5 L 319.11 22.5 C 334.72 22.5 350.33 23.429 365.05 25.289 C 365.945 25.755 366.39 25.755 367.28 25.755 C 371.74 26.22 375.755 26.685 379.77 27.149 C 380.38 27.149 380.995 27.21 381.59 27.26 C 382.725 27.365 383.795 27.46 384.675 27.149 C 386.235 27.385 387.685 27.62 389.135 27.85 C 390.585 28.085 392.035 28.315 393.595 28.55 L 400.29 29.945 C 401.405 30.175 402.63 30.405 403.855 30.64 C 405.085 30.875 406.31 31.105 407.425 31.34 C 408.54 31.57 409.765 31.805 410.995 32.035 C 412.22 32.27 413.445 32.505 414.56 32.735 C 416.79 33.665 419.02 34.13 421.25 34.6 C 422.365 34.83 423.48 35.175 424.595 35.525 C 425.71 35.875 426.825 36.225 427.945 36.455 C 429.28 36.92 430.505 37.27 431.735 37.62 C 432.96 37.97 434.185 38.32 435.525 38.785 L 440.88 40.175 C 443.01 40.735 445.135 41.455 447.17 42.145 C 448.545 42.61 449.879 43.06 451.135 43.435 C 451.585 43.67 451.915 43.785 452.25 43.9 C 452.585 44.02 452.92 44.135 453.365 44.37 C 477.005 52.275 497.97 62.51 515.365 72.745 C 515.59 72.98 515.815 73.095 516.035 73.21 C 516.26 73.33 516.48 73.445 516.705 73.675 C 516.93 73.91 517.15 74.025 517.375 74.145 C 517.595 74.26 517.82 74.375 518.045 74.61 C 485.48 93.215 442.66 107.17 400.735 113.685 C 400.42 112.945 400.09 112.08 399.72 111.14 C 394.37 97.29 381.475 63.92 302.16 70.885 L 289.67 39.715 L 276.735 44.37 L 279.855 76 C 279.855 76 255.325 86.7 247.295 92.285 C 247.74 95.545 249.08 101.125 249.97 104.85 Z M 222.25 135.765 C 210.925 148.075 197.505 162.65 193.325 169.05 C 117.05 156.95 72 143.46 50.59 135.555 C 51.035 134.855 51.48 134.275 51.93 133.69 C 52.375 133.11 52.82 132.53 53.265 131.83 C 53.709 131.365 54.16 130.785 54.605 130.205 C 55.05 129.62 55.495 129.04 55.94 128.575 C 56.835 127.645 57.725 126.595 58.62 125.555 C 59.51 124.505 60.405 123.455 61.295 122.525 C 61.74 121.595 62.635 120.67 63.525 119.735 C 64.415 118.805 65.42 117.875 66.425 116.94 C 67.43 116.015 68.43 115.085 69.325 114.155 L 72 111.36 C 73.115 110.435 74.23 109.385 75.345 108.34 L 75.345 108.335 C 76.46 107.29 77.575 106.24 78.69 105.315 L 80.475 103.45 C 90.29 94.615 100.545 87.165 110.36 80.66 C 110.585 80.66 110.695 80.54 110.805 80.425 C 110.915 80.31 111.03 80.19 111.25 80.19 L 115.265 77.4 C 131.77 85.31 178.16 106.24 237.93 118.34 C 235.085 121.825 229.045 128.385 222.25 135.765 Z M 405.195 177.89 C 494.85 172.77 567.555 153.695 595.21 143.46 C 594.76 142.995 594.43 142.53 594.095 142.065 C 593.76 141.6 593.425 141.14 592.98 140.675 C 592.755 140.44 592.53 140.09 592.31 139.74 C 592.085 139.39 591.865 139.045 591.64 138.81 L 584.95 130.435 L 584.505 129.97 C 582.275 127.18 580.045 124.855 577.37 122.06 L 577.365 122.06 L 575.135 119.735 L 569.785 114.155 C 568.445 112.755 567.11 111.36 565.77 110.43 C 565.1 109.735 564.32 109.035 563.545 108.34 L 563.54 108.34 L 563.54 108.335 L 563.535 108.335 C 562.755 107.635 561.975 106.94 561.31 106.24 C 560.64 105.545 559.97 104.965 559.3 104.385 C 558.635 103.8 557.965 103.22 557.295 102.52 C 554.62 100.195 551.94 97.87 548.82 95.545 L 548.375 95.08 C 542.13 89.96 535.885 85.31 529.64 81.585 C 514.03 90.425 472.1 110.9 403.41 121.595 C 410.545 139.74 405.195 177.89 405.195 177.89 Z M 293.685 191.85 C 293.685 191.85 256.66 210.925 240.16 240.7 L 10 240.7 C 10 238.37 10 236.51 10.445 235.115 L 10.445 234.65 C 10.67 232.785 10.89 231.045 11.115 229.3 C 11.34 227.55 11.56 225.81 11.785 223.95 L 11.785 223.48 C 11.98 222.265 12.26 220.955 12.55 219.595 C 12.925 217.845 13.315 216.015 13.57 214.18 C 14.015 213.71 14.015 213.245 14.015 212.78 C 14.46 209.99 14.905 207.195 15.8 204.41 L 15.8 203.475 C 16.245 202.08 16.69 200.57 17.135 199.06 L 17.135 199.055 C 17.585 197.545 18.03 196.035 18.475 194.64 C 22.935 180.215 29.625 165.33 39.885 149.975 C 40.11 149.745 40.22 149.51 40.33 149.28 C 40.44 149.045 40.555 148.81 40.775 148.58 C 40.945 148.41 41.045 148.17 41.16 147.91 C 41.345 147.485 41.555 147.01 42.115 146.715 C 80.92 159.745 143.815 174.635 195.11 181.615 C 218.185 220.56 240.47 201.465 252.315 191.32 C 253.065 190.68 253.77 190.075 254.43 189.52 C 269.15 190.45 293.685 191.85 293.685 191.85 Z M 393.15 240.7 L 630 240.7 C 630 238.835 630 236.51 629.555 234.65 C 628.66 220.225 625.54 205.34 620.185 190.45 L 620.185 189.985 C 619.295 187.195 617.955 183.94 616.62 181.15 C 616.395 180.915 616.285 180.565 616.175 180.215 C 616.06 179.87 615.95 179.52 615.725 179.285 C 615.265 178.325 614.86 177.415 614.465 176.55 L 614.465 176.545 L 614.46 176.54 L 614.46 176.535 L 614.46 176.53 C 613.715 174.88 613.035 173.36 612.16 171.84 L 610.82 169.05 C 610.18 167.375 609.305 165.94 608.365 164.4 C 608 163.805 607.625 163.19 607.25 162.535 C 606.805 161.835 606.47 161.145 606.135 160.445 C 605.8 159.745 605.465 159.05 605.02 158.35 C 604.575 157.885 604.575 157.42 604.575 157.42 C 603.87 157.63 603.08 157.875 602.195 158.14 C 581.81 164.365 513.715 185.14 403.41 191.385 C 402.225 197.57 400.65 204.09 399.085 210.595 C 396.525 221.204 393.98 231.755 393.15 240.7 Z M 10 253.255 L 233.02 253.255 C 228.115 263.025 224.1 285.36 224.995 296.525 C 112.445 306.96 58.72 325.115 38.335 332.005 C 36.905 332.485 35.64 332.91 34.53 333.28 C 34.085 333.28 34.085 332.815 34.085 332.815 C 34.085 332.35 33.64 331.42 33.195 330.955 C 32.525 329.79 31.855 328.515 31.185 327.235 L 31.185 327.23 C 30.52 325.95 29.85 324.67 29.18 323.504 L 27.84 320.72 C 26.505 318.39 25.165 315.6 23.825 312.81 C 23.605 312.58 23.495 312.344 23.38 312.115 C 23.27 311.88 23.16 311.645 22.935 311.415 C 22.265 309.785 21.71 308.16 21.15 306.53 C 20.595 304.9 20.035 303.27 19.365 301.645 L 19.365 301.18 C 18.985 299.79 18.525 298.405 18.05 296.98 C 17.415 295.065 16.755 293.08 16.245 290.945 L 16.245 290.48 C 15.355 287.69 14.46 284.43 13.57 281.175 C 13.57 280.94 13.455 280.59 13.345 280.24 C 13.235 279.895 13.12 279.545 13.12 279.31 C 12.9 278.145 12.675 276.87 12.455 275.59 C 12.23 274.31 12.005 273.03 11.785 271.87 C 11.34 270.47 10.89 268.61 10.89 267.22 C 10.89 266.285 10.78 265.355 10.67 264.425 C 10.56 263.49 10.445 262.565 10.445 261.635 C 10.445 260.47 10.335 259.42 10.225 258.375 C 10.11 257.33 10 256.285 10 255.12 L 10 253.255 Z M 391.815 253.255 C 390.03 273.26 398.505 290.48 403.855 297.46 C 510.61 307.7 581.39 330.31 600.15 336.3 L 601.135 336.62 L 601.765 336.815 L 602.345 337 C 607.7 328.625 613.495 317.465 618.85 304.435 C 618.85 303.97 618.85 303.97 619.295 303.5 C 620.185 301.18 621.08 298.85 621.525 296.525 C 621.775 296 621.885 295.48 622.015 294.875 C 622.11 294.405 622.22 293.885 622.415 293.265 C 622.865 291.41 623.31 289.545 624.2 287.69 C 624.425 286.755 624.645 285.94 624.87 285.125 C 625.095 284.31 625.315 283.495 625.54 282.57 C 625.76 281.87 625.875 281.175 625.985 280.475 C 626.095 279.775 626.21 279.08 626.43 278.38 C 627.325 275.125 627.77 271.87 628.215 268.61 L 628.215 267.685 C 628.66 264.425 629.11 260.705 629.11 257.45 L 629.11 256.05 L 629.11 252.79 C 621.525 253.255 400.735 253.255 391.815 253.255 Z M 406.98 334.21 C 415.455 324.44 410.995 310.484 410.995 310.484 C 489.455 316.545 567.92 339.135 591.72 345.98 C 593.49 346.495 594.959 346.915 596.1 347.24 C 595.88 347.705 595.545 348.055 595.21 348.4 C 594.875 348.745 594.54 349.095 594.315 349.56 C 593.87 350.96 592.98 351.89 592.085 352.82 C 591.195 353.98 590.3 355.03 589.41 356.075 C 588.52 357.125 587.625 358.17 586.735 359.33 L 584.055 362.125 C 583.165 363.055 582.385 363.98 581.605 364.915 C 580.825 365.845 580.045 366.775 579.15 367.71 L 575.135 371.895 L 571.12 376.08 C 570.23 376.78 569.45 377.595 568.67 378.41 C 567.89 379.22 567.11 380.035 566.215 380.735 C 564.875 382.13 563.54 383.525 561.755 384.92 C 561.085 385.62 560.415 386.2 559.75 386.78 C 559.08 387.364 558.41 387.945 557.74 388.645 C 555.51 390.97 553.28 392.83 550.605 394.69 L 549.265 396.085 C 543.02 401.205 536.33 405.855 529.64 410.04 C 529.195 410.275 528.86 410.51 528.525 410.74 C 528.19 410.975 527.855 411.205 527.41 411.44 L 524.735 412.835 C 522.305 411.865 519.455 410.675 516.205 409.315 C 488.425 397.73 431.435 373.955 358.36 367.71 C 366.11 356.39 391.7 352.8 403.55 351.135 C 405.34 350.88 406.815 350.68 407.87 350.495 L 407.87 337.935 L 231.24 337.935 L 231.24 350.495 C 231.24 350.495 268.705 350.96 278.07 366.775 C 176.82 375.615 124.185 409.575 117.495 414.235 C 116.16 413.77 114.82 412.835 113.48 411.905 C 112.815 411.44 112.255 411.09 111.7 410.74 L 111.695 410.74 C 111.14 410.39 110.58 410.04 109.915 409.575 L 101.885 404 C 101.44 403.765 101.105 403.53 100.77 403.3 C 100.435 403.065 100.1 402.835 99.655 402.6 C 96.98 400.74 94.3 398.88 91.625 396.55 C 90.735 395.62 90.29 395.155 89.395 394.69 C 88.06 393.53 86.83 392.48 85.605 391.435 C 84.38 390.385 83.15 389.34 81.815 388.18 C 81.365 387.945 81.035 387.595 80.7 387.25 C 80.365 386.9 80.03 386.55 79.585 386.315 C 77.355 384.455 74.675 382.13 72.445 379.8 C 72.135 379.155 71.605 378.73 71.165 378.375 C 70.975 378.225 70.795 378.085 70.66 377.945 C 67.985 375.615 65.31 372.825 63.08 370.5 L 62.185 369.565 C 59.51 366.775 56.835 363.985 54.605 361.195 C 52.75 359.26 51.11 357.1 49.535 355.025 L 49.53 355.025 C 48.835 354.11 48.15 353.21 47.47 352.355 C 46.575 351.425 46.13 350.96 45.685 350.025 L 41.67 344.445 C 53.709 339.79 121.51 316.53 226.33 308.62 C 227.225 320.72 230.79 334.21 230.79 334.21 L 406.98 334.21 Z M 353.9 377.945 C 353.01 382.595 353.455 391.9 361.93 397.95 C 366.835 401.67 372.635 403.53 379.77 404.46 C 384.23 404.925 388.69 405.39 394.49 405.39 C 397.66 405.39 400.125 405.3 402.87 405.2 C 406.295 405.07 410.15 404.925 416.345 404.925 L 416.345 457.035 C 432.85 453.31 449.8 447.73 466.305 441.68 C 466.305 441.68 466.75 441.68 466.75 441.215 C 468.755 440.285 470.875 439.475 472.995 438.66 C 475.11 437.845 477.23 437.03 479.24 436.095 L 479.685 436.095 C 488.16 432.375 496.185 428.655 503.325 424.47 C 503.565 424.34 503.77 424.215 503.96 424.1 C 504.485 423.785 504.9 423.535 505.555 423.535 C 506.225 423.305 506.89 422.955 507.56 422.605 C 508.23 422.255 508.9 421.91 509.57 421.675 C 507.785 420.745 441.77 386.315 353.9 377.945 Z M 130.21 422.84 C 129.54 422.49 128.87 422.14 128.2 421.675 C 154.965 402.6 208.935 381.2 282.535 376.08 C 282.98 379.335 283.87 391.9 274.505 398.415 C 269.15 402.135 258.445 404 247.74 404.46 C 233.02 405.39 217.855 404.46 217.855 404.46 L 217.855 457.5 C 217.27 457.295 216.77 457.18 216.315 457.075 C 215.735 456.94 215.235 456.825 214.735 456.565 C 212.95 456.1 211.165 455.635 209.83 455.17 C 207.555 454.645 205.425 453.97 203.36 453.315 C 201.775 452.815 200.225 452.315 198.675 451.915 C 198.455 451.915 198.23 451.8 198.005 451.68 C 197.785 451.565 197.56 451.45 197.34 451.45 C 174.145 444.01 152.29 435.165 134 424.93 C 133.66 424.755 133.385 424.645 133.15 424.55 C 132.765 424.4 132.49 424.29 132.215 424.005 C 131.545 423.535 130.88 423.19 130.21 422.84 Z" fill="#fff"/>
</svg>

<svg xmlns="http://www.w3.org/2000/svg" viewBox="0 0 640 480"><path fill="#334166" d="M0 0h640v480H0z"/><path fill="#fff" d="M250 104.8a41.3 41.3 0 0 1-4 4.7A535.6 535.6 0 0 1 129 70l1.2-.7 1.1-.7c2.3-1.4 4.5-2.8 6.7-3.8a6 6 0 0 0 1.8-.9l1.8-1 8-4.1 1.6-.7 1.5-.7c2-1 4-1.8 5.7-2.5l2-.8c1.6-.3 3-1 4.7-1.7l1.5-.6a380.5 380.5 0 0 1 104.8-26.5l13.4-1.4c1.3-.5 3-.5 4.4-.5 1.6 0 3.1 0 4.7-.2l4.7-.2c1.8-.5 4-.5 5.8-.5H319c15.6 0 31.2 1 46 2.8.8.5 1.3.5 2.2.5l12.5 1.3 1.8.2c1.1 0 2.2.2 3-.2l4.5.8 4.5.7 6.7 1.3 3.6.7 3.5.7a200.5 200.5 0 0 0 7.2 1.4c2.2 1 4.4 1.4 6.6 1.9 1.2.2 2.3.6 3.4 1l3.3.9 3.8 1.1 3.8 1.2 5.4 1.4a95 95 0 0 1 11.4 3.7l1 .5a326 326 0 0 1 62 28.3l.7.5c.3.1.5.2.7.5l.7.4.6.5a355.6 355.6 0 0 1-117.3 39l-1-2.5C394.4 97.3 381.5 64 302.2 71l-12.5-31.2-13 4.7L280 76s-24.6 10.7-32.6 16.3c.4 3.2 1.8 8.8 2.7 12.5Zm-27.8 31a452.1 452.1 0 0 0-28.9 33.2C117 156.9 72 143.5 50.6 135.6l1.3-2c.5-.5 1-1 1.4-1.8l1.3-1.6 1.3-1.6 2.7-3 2.7-3c.4-1 1.3-2 2.2-2.9l3-2.8 2.8-2.7 2.7-2.8 3.3-3c1.2-1.1 2.3-2.2 3.4-3l1.8-2c9.8-8.8 20-16.2 29.9-22.7.2 0 .3-.2.4-.3.1 0 .2-.2.5-.2l4-2.8c16.5 8 62.9 28.8 122.6 41-2.8 3.4-8.9 10-15.7 17.4Zm183 42c89.7-5 162.4-24.1 190-34.3l-1.1-1.4-1.1-1.4-.7-1c-.2-.3-.4-.7-.7-.9l-6.6-8.4-.5-.4c-2.2-2.8-4.5-5.1-7.1-8l-2.3-2.3-5.3-5.5c-1.4-1.4-2.7-2.8-4-3.8l-2.3-2-2.2-2.2-2-1.8-2-1.9a142 142 0 0 0-8.5-7l-.4-.4c-6.3-5.1-12.5-9.8-18.8-13.5-15.6 8.8-57.5 29.3-126.2 40 7.1 18.1 1.8 56.3 1.8 56.3Zm-111.5 14s-37 19.1-53.5 48.9H10c0-2.3 0-4.2.4-5.6v-.4a649.7 649.7 0 0 1 1.4-10.8v-.4l.8-4 1-5.3c.4-.5.4-1 .4-1.4.5-2.8.9-5.6 1.8-8.4v-1l1.3-4.3 1.4-4.5A169.9 169.9 0 0 1 39.9 150l.4-.7.5-.7.4-.7c.1-.4.4-.9 1-1.2 38.7 13 101.6 28 153 35 23 38.9 45.3 19.8 57.1 9.6l2.1-1.8c14.7 1 39.3 2.3 39.3 2.3Zm99.4 48.9H630c0-1.9 0-4.2-.4-6-1-14.5-4-29.4-9.4-44.3v-.4c-1-2.8-2.2-6-3.6-8.8l-.4-1-.5-1-1.2-2.6-2.3-4.8-1.4-2.8c-.6-1.6-1.5-3-2.4-4.6a70.9 70.9 0 0 1-3.4-6c-.4-.5-.4-1-.4-1l-2.4.7c-20.4 6.3-88.5 27-198.8 33.3-1.2 6.2-2.8 12.7-4.3 19.2a227.9 227.9 0 0 0-6 30.1ZM10 253.3h223c-4.9 9.7-8.9 32-8 43.2C112.4 307 58.7 325.1 38.3 332l-3.8 1.3c-.4 0-.4-.5-.4-.5a109 109 0 0 1-2.9-5.6l-2-3.7-1.4-2.8c-1.3-2.3-2.6-5.1-4-7.9l-.4-.7c-.1-.2-.2-.5-.5-.7l-1.8-4.9c-.5-1.6-1-3.2-1.7-4.9v-.4L18 297l-1.9-6v-.5l-2.6-9.3-.3-1-.2-.9-.6-3.7-.7-3.7c-.5-1.4-1-3.3-1-4.7l-.1-2.8c-.1-1-.3-1.8-.3-2.8 0-1.1 0-2.2-.2-3.2L10 255v-1.8Zm381.8 0a67.9 67.9 0 0 0 12 44.2 922.5 922.5 0 0 1 196.3 38.8l1 .3.7.2.5.2a210 210 0 0 0 16.6-32.6c0-.4 0-.4.4-.9.9-2.3 1.8-4.6 2.2-7 .3-.5.4-1 .5-1.6l.4-1.6c.5-1.9 1-3.8 1.8-5.6a77.2 77.2 0 0 1 1.3-5.1 8 8 0 0 0 .5-2.1l.4-2.1c1-3.3 1.4-6.5 1.8-9.8v-1c.5-3.2 1-6.9 1-10.2v-4.6c-7.7.5-228.5.5-237.4.5Zm15.2 81c8.5-9.9 4-23.8 4-23.8 78.5 6 157 28.6 180.7 35.5l4.4 1.2c-.2.5-.6.9-.9 1.2-.3.3-.7.7-.9 1.2a8.3 8.3 0 0 1-2.2 3.2l-2.7 3.3-2.7 3.2-2.6 2.8-2.5 2.8-2.5 2.8-4 4.2-4 4.2c-.9.7-1.6 1.5-2.4 2.3l-2.5 2.3a44.7 44.7 0 0 1-4.4 4.2l-2 1.9c-.7.6-1.4 1.1-2 1.8a45.5 45.5 0 0 1-7.2 6l-1.3 1.5c-6.3 5.1-13 9.8-19.7 14l-1 .6-1.2.7-2.7 1.4-8.5-3.5a516.4 516.4 0 0 0-157.8-41.6c7.7-11.3 33.3-14.9 45.2-16.6l4.3-.6v-12.6H231.2v12.6s37.5.5 46.9 16.3c-101.3 8.8-154 42.8-160.6 47.4-1.3-.4-2.7-1.4-4-2.3l-1.8-1.2-1.8-1.1-8-5.6-1.1-.7-1.1-.7c-2.7-1.9-5.4-3.7-8-6-1-1-1.4-1.4-2.3-2a534 534 0 0 0-3.8-3.2l-3.8-3.2-1.1-1-1.1-.9c-2.2-1.8-5-4.2-7.2-6.5-.3-.6-.8-1-1.2-1.4l-.5-.5c-2.7-2.3-5.4-5-7.6-7.4l-1-1c-2.6-2.7-5.3-5.5-7.5-8.3-1.9-2-3.5-4.1-5-6.2a153 153 0 0 0-4-5l-4-5.6c12.1-4.6 80-27.9 184.7-35.8 1 12.1 4.5 25.6 4.5 25.6H407Zm-53.1 43.6a20 20 0 0 0 8 20 36 36 0 0 0 17.9 6.6c4.4.4 8.9.9 14.7.9l8.4-.2c3.4-.1 7.3-.3 13.4-.3V457c16.6-3.7 33.5-9.3 50-15.3 0 0 .4 0 .4-.5 2-1 4.2-1.7 6.3-2.5l6.2-2.6h.5c8.5-3.7 16.5-7.4 23.6-11.6l.7-.4c.5-.3.9-.6 1.6-.6l2-.9 2-1c-1.8-.9-67.8-35.3-155.7-43.7Zm-223.7 45a18 18 0 0 1-2-1.2c26.8-19.1 80.7-40.5 154.3-45.6.5 3.2 1.4 15.8-8 22.3-5.4 3.7-16 5.6-26.8 6-14.7 1-29.8 0-29.8 0v53.1l-1.6-.4-1.6-.5-4.9-1.4c-2.2-.6-4.4-1.2-6.4-1.9l-4.7-1.4-.7-.2c-.2-.1-.4-.3-.7-.3a344 344 0 0 1-63.3-26.5l-.8-.3c-.4-.2-.7-.3-1-.6l-2-1.2Z"/></svg>
